assets/images/home/blog_icon.svg

<svg width="14" height="14" viewBox="0 0 14 14" fill="none" xmlns="http://www.w3.org/2000/svg">
<g clip-path="url(#clip0_145_1151)">
<path d="M1.18292 0.523469C1.50508 0.20073 1.95442 0 2.44661 0H10.8652C11.3575 0 11.8067 0.20073 12.1288 0.523469C12.4517 0.845715 12.6525 1.29486 12.6524 1.78741V1.9314H13.0454C13.2083 1.9314 13.3404 2.06361 13.3404 2.22674C13.3404 2.38943 13.2083 2.52161 13.0454 2.52161H12.6524V4.29234H13.0454C13.2083 4.29234 13.3404 4.42452 13.3404 4.58743C13.3404 4.75013 13.2083 4.88255 13.0454 4.88255H12.6524V6.65325H13.0454C13.2083 6.65325 13.3404 6.78546 13.3404 6.94816C13.3404 7.11107 13.2083 7.24303 13.0454 7.24303H12.6524V9.01395H13.0454C13.2083 9.01395 13.3404 9.14637 13.3404 9.3091C13.3404 9.47201 13.2083 9.60397 13.0454 9.60397H12.6524V11.3749H13.0454C13.2083 11.3749 13.3404 11.5069 13.3404 11.6698C13.3404 11.8327 13.2083 11.9649 13.0454 11.9649H12.6524V12.2128C12.6525 12.7051 12.4517 13.1543 12.1288 13.4765C11.8067 13.7992 11.3575 14.0002 10.8652 14H2.44661C1.95442 14.0002 1.50508 13.7992 1.18292 13.4765C0.860209 13.1543 0.659342 12.7051 0.659561 12.2128V1.78741C0.659342 1.29486 0.860209 0.845715 1.18292 0.523469ZM9.5422 13.2135H10.8652C11.1429 13.2135 11.3905 13.1022 11.5728 12.9204C11.7545 12.7381 11.8656 12.4906 11.8658 12.2128V11.9649H11.2417C11.1389 12.1372 10.9508 12.2533 10.7353 12.2533C10.4096 12.2533 10.1456 11.9891 10.1456 11.6635C10.1456 11.3377 10.4096 11.0737 10.7353 11.0737C10.9563 11.0737 11.1483 11.1952 11.2495 11.3749H11.8659V9.60395H11.2427C11.14 9.77733 10.9515 9.89395 10.7354 9.89395C10.4097 9.89395 10.1456 9.62976 10.1456 9.30418C10.1456 8.97857 10.4097 8.71437 10.7354 8.71437C10.9556 8.71437 11.1472 8.83542 11.2485 9.01392H11.8659V7.243H11.2437C11.1412 7.41751 10.9521 7.53479 10.7353 7.53479C10.4096 7.53479 10.1456 7.27059 10.1456 6.94523C10.1456 6.61918 10.4096 6.35502 10.7353 6.35502C10.9549 6.35502 11.146 6.47519 11.2475 6.65323H11.8659V4.88253H11.2446C11.1422 5.05747 10.9528 5.17543 10.7354 5.17543C10.4097 5.17543 10.1456 4.91148 10.1456 4.58566C10.1456 4.26027 10.4097 3.99585 10.7354 3.99585C10.9542 3.99585 11.145 4.11559 11.2466 4.29231H11.8659V2.52161H11.2456C11.1436 2.69765 10.9535 2.8163 10.7353 2.8163C10.4096 2.8163 10.1456 2.5521 10.1456 2.22674C10.1456 1.90069 10.4096 1.63671 10.7353 1.63671C10.9535 1.63671 11.1435 1.75555 11.2456 1.9314H11.8659V1.78741C11.8657 1.5094 11.7545 1.26194 11.5728 1.07942C11.3905 0.897805 11.1429 0.786762 10.8653 0.786543H9.54223V13.2135H9.5422ZM1.44588 12.2128C1.4461 12.4906 1.55728 12.7381 1.73901 12.9204C1.92128 13.1022 2.16902 13.2135 2.44664 13.2135H9.24722V0.786543H2.44661C2.16899 0.786762 1.92126 0.897805 1.73898 1.07942C1.55726 1.26194 1.4461 1.5094 1.44586 1.78741L1.44588 12.2128Z" fill="#222222"/>
<path d="M2.8222 3.09277H8.04295V3.38765H2.8222V3.09277Z" fill="#222222"/>
<path d="M2.8222 4.98511H8.04295V5.28001H2.8222V4.98511Z" fill="#222222"/>
<path d="M2.8222 6.87769H8.04295V7.17259H2.8222V6.87769Z" fill="#222222"/>
<path d="M2.8222 8.77002H8.04295V9.06492H2.8222V8.77002Z" fill="#222222"/>
<path d="M2.8222 10.6624H8.04295V10.957H2.8222V10.6624Z" fill="#222222"/>
</g>
<defs>
<clipPath id="clip0_145_1151">
<rect width="14" height="14" fill="white" transform="matrix(-1 0 0 1 14 0)"/>
</clipPath>
</defs>
</svg>

<svg width="14" height="14" viewBox="0 0 14 14" fill="none" xmlns="http://www.w3.org/2000/svg"><g clip-path="url(#clip0_145_1151)" fill="#222"><path d="M1.183.523A1.784 1.784 0 012.447 0h8.418a1.784 1.784 0 011.787 1.787v.144h.393a.295.295 0 010 .59h-.393v1.771h.393a.295.295 0 010 .59h-.393v1.771h.393a.295.295 0 010 .59h-.393v1.77h.393a.295.295 0 010 .591h-.393v1.77h.393a.295.295 0 110 .59h-.393v.249A1.783 1.783 0 0110.865 14H2.447A1.784 1.784 0 01.66 12.213V1.787c0-.492.2-.941.523-1.264zm8.36 12.69h1.322a.994.994 0 00.708-.293.995.995 0 00.293-.707v-.248h-.624a.59.59 0 11.007-.59h.617V9.604h-.623a.589.589 0 11.005-.59h.618V7.243h-.622a.589.589 0 11.004-.59h.618v-1.77h-.621a.59.59 0 11.002-.59h.619V2.521h-.62a.59.59 0 110-.59h.62v-.145a.996.996 0 00-1-1H9.541v12.426zm-8.097-1c0 .278.111.525.293.707.182.182.43.293.708.293h6.8V.787h-6.8a.996.996 0 00-1 1l-.001 10.426z"/><path d="M2.822 3.093h5.22v.295h-5.22v-.295zm0 1.892h5.22v.295h-5.22v-.295zm0 1.893h5.22v.295h-5.22v-.295zm0 1.892h5.22v.295h-5.22V8.77zm0 1.892h5.22v.295h-5.22v-.295z"/></g><defs><clipPath id="clip0_145_1151"><path fill="#fff" transform="matrix(-1 0 0 1 14 0)" d="M0 0h14v14H0z"/></clipPath></defs></svg>
